!!!OTL: 934. Abendreihen.
!!!ODT: 1559
!!!ARE: Europa, Mitteleuropa, Deutschland
!!!SCT: E0934A
!!!TXL: @@DE
!!!YEM: Copyright 1995, estate of Helmut Schaffrath.
**kern	**text
*ICvox	*
*M4/4	*
*met(c)	*
*k[f#]	*
*G:	*
!LO:TX:a:t=Berwald's Lpʒ. Gſb. 1552. Babſt's Gſb. 1559.	!
{2g	Wie
=1	=1
4b	ſteht
4a	ihr
4b	al-
4cc	-le
=2	=2
2.dd	hie
4ee	und
=3	=3
2dd	war-
2b	-tet
=4	=4
2g}	mein
{2g	Wie
=5	=5
4b	ſteht
4a	ihr
4b	al-
4cc	-le
=6	=6
2.dd	hie
4ee	und
=7	=7
2dd	war-
2b	-tet
=8	=8
2g}	mein
{2dd	und
=9	=9
2b	meint,
2a	ich
=10	=10
2g	ſoll
2d	eur
=11	=11
4a	Vor-
4b	-ſin-
4cc	-ge-
4b	-rin
=12	=12
2g;}	ſein.
{2dd	und
=13	=13
2b	meint,
2a	ich
=14	=14
2g	ſoll
2d	eur
=15	=15
4a	Vor-
4b	-ſin-
4cc	-ge-
4b	-rin
=16	=16
2g;}	ſein.
==	==
!!!AGN: Tanz - Lied, Reigen, geistlich
!!!ONB: ESAC (Essen Associative Code) Database: ERK2
!!!AMT: simple quadruple
!!!AIN: vox
!!!EED: Helmut Schaffrath
!!!EEV: 1.0
!!!GTL: Tanz- und Spiellieder.
!!!URL-scan: https://rosdok.uni-rostock.de/mcrviewer/recordIdentifier/rosdok_ppn745177662/iview2/phys_0719.iview2?x=193.8995864193107&y=573.6704153870232&scale=0.7029437510502773&rotation=0&layout=singlePageLayout
!!!ENC: Anna Maria Matuszewska
!!!EEV: 2024/12/18
*-	*-
